X:563
T:Highland Donald
D:Andrew Rankine
Z:Nigel Gatherer
L:1/8
M:2/4
K:Bm
d/c/ | BB  BA/B/ | cB Bc/B/ | A>F EF  | AB       A>E |
       FB  BA/B/ | cB Bc/B/ | A>F EF  | B2       B  :|
A    | d2  d>e   | fd BA    | e2  e>f | g/f/e/d/ BA  |
       d>e fd    | Bd AF    | BA  FA  | B2       B :|]
